_uploads/dcdw-logo.svg

<svg xmlns="http://www.w3.org/2000/svg" width="39" height="44" fill="none" viewBox="0 0 39 44"><path fill="#000" d="M38.684 0H36.5386C36.4852 0 36.434 0.0212091 36.3963 0.0589616C36.3585 0.0967141 36.3373 0.147917 36.3373 0.201308V38.3003C36.3376 38.4104 36.3069 38.5184 36.2488 38.612C36.1907 38.7055 36.1075 38.7809 36.0087 38.8295C35.9098 38.8782 35.7994 38.8981 35.6898 38.8871C35.5802 38.876 35.4759 38.8344 35.3888 38.7671L32.4562 36.4991C31.911 36.078 31.2415 35.8495 30.5526 35.8494H0.201308C0.147994 35.8494 0.0968567 35.8706 0.0591168 35.9083C0.0213769 35.9459 0.000116406 35.997 0 36.0503L0 38.1957C0 38.2491 0.0212091 38.3003 0.0589616 38.338C0.0967141 38.3758 0.147917 38.397 0.201308 38.397H29.7518C30.3961 38.3969 31.0222 38.6107 31.5319 39.0049L37.932 43.8789C38.0199 43.9458 38.1247 43.9868 38.2346 43.9973C38.3446 44.0078 38.4553 43.9874 38.5543 43.9384C38.6532 43.8894 38.7366 43.8137 38.7948 43.7198C38.8531 43.626 38.884 43.5177 38.884 43.4073V0.201308C38.884 0.148145 38.863 0.0971406 38.8255 0.0594258C38.788 0.021711 38.7372 0.000348225 38.684 0V0Z"/><path fill="#000" d="M29.6032 17.9683C29.5842 17.9444 29.5602 17.9252 29.5328 17.912C29.5054 17.8987 29.4754 17.8918 29.445 17.8918H27.104C27.0565 17.8918 27.0106 17.9085 26.9742 17.939C26.9379 17.9694 26.9133 18.0117 26.9049 18.0584L25.8676 23.8229L24.5626 18.0474C24.5523 18.0027 24.5272 17.9629 24.4913 17.9343C24.4555 17.9057 24.4111 17.8901 24.3652 17.89H21.9988C21.9531 17.8901 21.9087 17.9057 21.873 17.9342C21.8372 17.9627 21.8122 18.0024 21.8019 18.0469L20.4507 23.9626L19.0055 18.0461C18.9948 18.002 18.9696 17.9629 18.934 17.9349C18.8983 17.907 18.8544 17.8918 18.8091 17.8918H16.4681C16.4371 17.8918 16.4065 17.8989 16.3787 17.9127C16.3509 17.9264 16.3267 17.9463 16.3078 17.9709C16.2889 17.9955 16.276 18.0241 16.2699 18.0545C16.2639 18.0849 16.2649 18.1163 16.2729 18.1463L19.2002 29.0696C19.2118 29.1126 19.2371 29.1506 19.2724 29.1777C19.3077 29.2048 19.3509 29.2195 19.3954 29.2195H21.4401C21.4854 29.2195 21.5293 29.2044 21.5649 29.1765C21.6005 29.1486 21.6258 29.1096 21.6366 29.0657L23.175 22.8124L24.7133 29.0657C24.7242 29.1096 24.7495 29.1485 24.7851 29.1764C24.8207 29.2043 24.8646 29.2195 24.9098 29.2195H26.9541C26.9999 29.2194 27.0443 29.2038 27.0801 29.1753C27.1159 29.1467 27.1409 29.1068 27.151 29.0621L29.6445 18.1388C29.6509 18.1091 29.6505 18.0783 29.6434 18.0488C29.6362 18.0193 29.6225 17.9917 29.6032 17.9683V17.9683Z"/><path fill="#000" d="M14.8603 23.5552C14.8603 20.271 12.5224 17.8852 9.30147 17.8852H5.33378C5.28016 17.8852 5.22873 17.9065 5.19081 17.9444C5.15289 17.9823 5.13159 18.0337 5.13159 18.0873V29.0221C5.13159 29.0758 5.15289 29.1272 5.19081 29.1651C5.22873 29.203 5.28016 29.2243 5.33378 29.2243H9.30147C12.5224 29.2243 14.8603 26.8403 14.8603 23.5552ZM12.2697 23.5552C12.2697 25.3678 11.0491 26.6319 9.30147 26.6319H7.7231V20.4775H9.30147C11.0491 20.4775 12.2697 21.7434 12.2697 23.5552Z"/><path fill="#000" d="M23.0559 13.721C24.4989 13.721 25.9511 13.1738 26.9409 12.2569C26.9683 12.2314 26.9866 12.1975 26.9929 12.1606C26.9993 12.1237 26.9934 12.0858 26.9761 12.0525L25.9863 10.1463C25.9735 10.1221 25.9553 10.1013 25.933 10.0856C25.9107 10.0698 25.8849 10.0596 25.8579 10.0557C25.85 10.0553 25.8421 10.0553 25.8342 10.0557C25.811 10.0557 25.788 10.0604 25.7667 10.0695C25.7454 10.0787 25.7262 10.0921 25.7102 10.1089C24.9701 10.8913 24.062 11.3066 23.0836 11.3102H23.0625C21.6674 11.3102 20.594 10.4979 20.2644 9.19598C20.1167 8.665 20.1155 8.10395 20.2609 7.57234C20.5866 6.26296 21.6612 5.4485 23.0655 5.4463H23.0822C24.062 5.45026 24.9723 5.86518 25.7102 6.64755C25.7262 6.66444 25.7454 6.6779 25.7667 6.68712C25.788 6.69634 25.811 6.70112 25.8342 6.70118C25.8421 6.70161 25.85 6.70161 25.8579 6.70118C25.885 6.6974 25.9107 6.68722 25.9331 6.67147C25.9554 6.65572 25.9736 6.63486 25.9863 6.61063L26.9761 4.70304C26.9934 4.66981 26.9993 4.63184 26.9929 4.59493C26.9866 4.55802 26.9683 4.52421 26.9409 4.49866C25.8773 3.51322 24.6066 3.03281 23.0559 3.03281C19.7295 3.03281 17.7419 5.74211 17.7419 8.3613C17.7419 8.36482 17.7419 8.37009 17.7419 8.37537C17.7419 8.38064 17.7419 8.38548 17.7419 8.39075C17.7419 11.4306 20.0266 13.721 23.0559 13.721Z"/><path fill="#000" d="M5.24501 13.6859H8.99865C12.035 13.6859 14.2384 11.5172 14.2384 8.42065C14.2384 5.32412 12.035 3.15632 8.99865 3.15632H5.24501C5.15007 3.15632 5.0437 3.11237 5.0437 3.20555V13.55C5.0437 13.6445 5.15007 13.6859 5.24501 13.6859ZM7.4128 11.3168V5.52542H8.99865C10.664 5.52542 11.8275 6.69459 11.8275 8.42065C11.8275 10.1467 10.664 11.3168 8.99865 11.3168H7.4128Z"/></svg>

<svg xmlns="http://www.w3.org/2000/svg" width="39" height="44" fill="none"><path fill="#000" d="M38.684 0h-2.145a.201.201 0 0 0-.202.201v38.1a.588.588 0 0 1-.948.466L32.456 36.5a3.115 3.115 0 0 0-1.903-.65H.2A.201.201 0 0 0 0 36.05v2.146a.201.201 0 0 0 .201.201h29.55c.645 0 1.271.214 1.78.608l6.401 4.874a.593.593 0 0 0 .952-.472V.201a.201.201 0 0 0-.2-.201z"/><path fill="#000" d="M29.603 17.968a.202.202 0 0 0-.158-.076h-2.341a.202.202 0 0 0-.2.166l-1.036 5.765-1.305-5.776a.203.203 0 0 0-.198-.157H22a.202.202 0 0 0-.197.157l-1.351 5.916-1.445-5.917a.202.202 0 0 0-.197-.154h-2.34a.201.201 0 0 0-.2.163.203.203 0 0 0 .004.091L19.2 29.07a.203.203 0 0 0 .195.15h2.045a.202.202 0 0 0 .197-.154l1.538-6.254 1.538 6.254a.203.203 0 0 0 .197.154h2.044a.203.203 0 0 0 .197-.158l2.494-10.923a.203.203 0 0 0-.042-.17zM14.86 23.555c0-3.284-2.338-5.67-5.559-5.67H5.334a.202.202 0 0 0-.202.202v10.935a.202.202 0 0 0 .202.202H9.3c3.221 0 5.56-2.384 5.56-5.669zm-2.59 0c0 1.813-1.22 3.077-2.969 3.077H7.723v-6.155h1.578c1.748 0 2.969 1.266 2.969 3.078zm10.786-9.834c1.443 0 2.895-.547 3.885-1.464a.171.171 0 0 0 .035-.204l-.99-1.907a.173.173 0 0 0-.128-.09.234.234 0 0 0-.091.014.172.172 0 0 0-.057.039c-.74.782-1.648 1.198-2.626 1.201h-.021c-1.396 0-2.469-.812-2.799-2.114a3.053 3.053 0 0 1-.003-1.624c.326-1.309 1.4-2.123 2.805-2.126h.016c.98.004 1.89.42 2.628 1.202a.172.172 0 0 0 .124.053h.024a.172.172 0 0 0 .128-.09l.99-1.908a.17.17 0 0 0-.035-.204c-1.064-.986-2.334-1.466-3.885-1.466-3.326 0-5.314 2.71-5.314 5.328v.03c0 3.04 2.285 5.33 5.314 5.33zm-17.811-.035h3.754c3.036 0 5.24-2.169 5.24-5.265 0-3.097-2.204-5.265-5.24-5.265H5.245c-.095 0-.201-.044-.201.05V13.55c0 .095.106.136.201.136zm2.168-2.37v-5.79h1.586c1.665 0 2.829 1.169 2.829 2.895s-1.164 2.896-2.83 2.896H7.414z"/></svg>
